_includes/icons/ios-google-docs.svg

<svg fill="#666" height="50" viewBox="0 0 50 50" width="50" xmlns="http://www.w3.org/2000/svg"><path d="m28.90625 1.96875c-.042969.007813-.085937.019531-.125.03125h-17.28125c-1.914062 0-3.5 1.558594-3.5 3.46875v38.4375c0 2.253906 1.867188 4.09375 4.125 4.09375h25.75c2.257813 0 4.125-1.839844 4.125-4.09375v-28.71875c.027344-.132812.027344-.273437 0-.40625v-.28125c.007813-.265625-.09375-.527344-.28125-.71875l-11.5-11.5c-.191406-.1875-.453125-.289062-.71875-.28125h-.3125c-.089844-.023437-.1875-.035156-.28125-.03125zm-17.40625 2.03125h16.5v8.34375c0 2.011719 1.644531 3.65625 3.65625 3.65625h8.34375v27.90625c0 1.167969-.945312 2.09375-2.125 2.09375h-25.75c-1.179687 0-2.125-.925781-2.125-2.09375v-38.4375c0-.824219.660156-1.46875 1.5-1.46875zm18.5.9375 9.0625 9.0625h-7.40625c-.933594 0-1.65625-.722656-1.65625-1.65625zm-13 19.0625v2h16v-2zm0 4v2h16v-2zm0 4v2h16v-2zm0 4v2h9v-2z"/></svg>

<svg xmlns="http://www.w3.org/2000/svg" viewBox="0 0 50 50" width="50" height="50" fill="#666"><path d="M 28.90625 1.96875 C 28.863281 1.976563 28.820313 1.988281 28.78125 2 L 11.5 2 C 9.585938 2 8 3.558594 8 5.46875 L 8 43.90625 C 8 46.160156 9.867188 48 12.125 48 L 37.875 48 C 40.132813 48 42 46.160156 42 43.90625 L 42 15.1875 C 42.027344 15.054688 42.027344 14.914063 42 14.78125 L 42 14.5 C 42.007813 14.234375 41.90625 13.972656 41.71875 13.78125 L 30.21875 2.28125 C 30.027344 2.09375 29.765625 1.992188 29.5 2 L 29.1875 2 C 29.097656 1.976563 29 1.964844 28.90625 1.96875 Z M 11.5 4 L 28 4 L 28 12.34375 C 28 14.355469 29.644531 16 31.65625 16 L 40 16 L 40 43.90625 C 40 45.074219 39.054688 46 37.875 46 L 12.125 46 C 10.945313 46 10 45.074219 10 43.90625 L 10 5.46875 C 10 4.644531 10.660156 4 11.5 4 Z M 30 4.9375 L 39.0625 14 L 31.65625 14 C 30.722656 14 30 13.277344 30 12.34375 Z M 17 24 L 17 26 L 33 26 L 33 24 Z M 17 28 L 17 30 L 33 30 L 33 28 Z M 17 32 L 17 34 L 33 34 L 33 32 Z M 17 36 L 17 38 L 26 38 L 26 36 Z"/></svg>
